ZUCCAL
CUT["Der Einsiedler"
    WENN I KOMM WIEDER AUF DIE WELT]
REG[Europa, Mitteleuropa, Deutschland, Boehmen]
KEY[Z1335  16  G 3/4]
MEL[-5_  1_1_2_2_3_23  4___
    3__  2_.1-7_1_2_3_  1___0_
    -5_  1_1_2_2_3_23  4___
    3__  2_.1-7_1_2_3_  1___0_
    1_  -7_1_2__.-7_  1_2_3__.
    1_  -6__4_3_5_4_  (3_4_5_)2__0_
    -5_  1_1_2_2_3_23  4___
    3__  2_.1-7_1_2_3_  1___0_ //] >>
FCT[Zech -, Schalks - Lied]
